X:16893
T:The Juggling Bride
M:4/4
L:1/8
Q:200
C:Copyright 1995 Michael Robinson
R:Reel
K:EDor
D|"Em"EBB^A A/2B/2B BA|B/2B/2B BA GEED|B,EEF GFED|"D"B,DDC D4|
"Em"EBB^A A/2B/2B BA|B/2B/2B BA GEED|B,EEF GABA|"Bm"G/2F/2E FD "Em"E3:|
e|"Em"g/2f/2e be g/2f/2e be|g/2f/2e be geec|"D"dBAF Dafe|dBAG FD D2|
"Em"g/2f/2e be g/2f/2e be|g/2f/2e be geec|"D"dBAF Dafe|dBAF "Em"E3:|
